X: 14708
T: Gan Ainm
R: jig
M: 6/8
K: Gmajor
|:B/c/|dBG GFG|EFG cge|dBG GFG|DFA c2 e|
dBG GFG|EFG cge|dBG cAF|G3 G2:|
|:B|cec A2 c|BGB GBG|DFA cec|GBG D2 B|
cec A2 c|BGB GFG|Bcd cde|d3 d/c/Bc:|

